64x64/apps/appimagekit-supertux2.svg

<svg xmlns="http://www.w3.org/2000/svg" width="64" height="64" version="1">
 <path style="opacity:0.2" d="M 50.912,28.016 C 51.425,26.28 51.708,24.449 51.708,22.549 51.708,11.753 42.888,3.0011 32.002,3.0011 21.122,3.0011 12.298,11.751 12.298,22.549 12.298,24.449 12.583,26.28 13.094,28.016 10.613,29.994 0.98234,38.562 4.9443,49.672 4.9443,49.672 8.2959,49.388 11.049,44.338 11.885,47.57 13.442,50.505 15.566,52.959 12.455,53.868 10.345,55.631 10.345,57.654 10.345,60.607 14.837,63 20.375,63 24.134,63 27.407,61.896 29.123,60.267 30.068,60.391 31.021,60.476 31.999,60.476 32.978,60.476 33.933,60.391 34.874,60.267 36.594,61.895 39.865,63 43.625,63 49.165,63 53.659,60.605 53.659,57.654 53.659,55.633 51.547,53.868 48.436,52.959 50.558,50.505 52.119,47.57 52.955,44.338 55.706,49.386 59.053,49.672 59.053,49.672 63.021,38.559 53.391,29.991 50.911,28.016 Z"/>
 <path style="fill:#4f4f4f" d="m 50.911843,27.016163 c 0.512698,-1.736413 0.795836,-3.567785 0.795836,-5.467376 0,-10.795753 -8.819961,-19.5479142 -19.705913,-19.5479142 -10.879952,0 -19.703713,8.7503612 -19.703713,19.5479142 0,1.899611 0.285038,3.730983 0.795836,5.467376 -2.481189,1.977411 -12.11154649,10.545553 -8.1495639,21.655904 0,0 3.3515852,-0.284658 6.1045729,-5.334376 0.835997,3.231786 2.39319,6.167573 4.51678,8.621362 -3.110586,0.908996 -5.220777,2.671988 -5.220777,4.694979 0,2.952787 4.491781,5.345777 10.030156,5.345777 3.759184,0 7.032369,-1.104475 8.748362,-2.732788 0.945036,0.123359 1.897751,0.208759 2.875387,0.208759 0.979476,0 1.934092,-0.0854 2.875387,-0.208759 1.719833,1.628233 4.991178,2.732788 8.750362,2.732788 5.540176,0 10.033956,-2.39499 10.033956,-5.345777 0,-2.020991 -2.111991,-3.785983 -5.222577,-4.694979 2.12159,-2.453789 3.682584,-5.389576 4.51858,-8.621362 2.750988,5.047978 6.098773,5.334376 6.098773,5.334376 C 63.02087,37.559116 53.390712,28.990954 50.911323,27.016163 Z"/>
 <circle style="fill:#f4f4f7" cx="22" cy="16" r="4"/>
 <circle style="fill:#f4f4f7" cx="42" cy="16" r="4"/>
 <ellipse style="fill:#f4f4f7" cx="32" cy="38" rx="14" ry="16"/>
 <circle style="fill:#303030" cx="24" cy="17" r="2"/>
 <circle style="fill:#303030" cx="44" cy="17" r="2"/>
 <path style="opacity:0.2" d="M 28,19 H 36 C 35.359,25.163 32,31 32,31 32,31 28,24.073 28,19 Z"/>
 <path style="fill:#cd5252" d="M 28,18 H 36 C 35.359,24.163 32,30 32,30 32,30 28,23.073 28,18 Z"/>
 <path style="fill:#f4f4f7;opacity:0.1" d="M 32.001953 2 C 21.122001 2 12.298828 10.751275 12.298828 21.548828 C 12.298828 21.687433 12.311441 21.823069 12.314453 21.960938 C 12.628684 11.436218 21.320725 3.0019531 32.001953 3.0019531 C 42.689071 3.0019531 51.377307 11.437858 51.691406 21.960938 C 51.6944 21.823071 51.707031 21.687432 51.707031 21.548828 C 51.707031 10.753075 42.887905 2 32.001953 2 z M 12.882812 27.195312 C 10.585384 29.06285 3.7543535 35.332808 4.0117188 43.800781 C 4.298805 35.621299 11.070924 29.627738 13.09375 28.015625 C 13.014305 27.745561 12.951112 27.469871 12.882812 27.195312 z M 51.123047 27.195312 C 51.054614 27.469873 50.99185 27.745558 50.912109 28.015625 C 52.933003 29.625232 59.701409 35.616988 59.988281 43.794922 C 60.246683 35.327535 53.418667 29.060474 51.123047 27.195312 z M 14.925781 52.175781 C 12.176503 53.130432 10.345703 54.776278 10.345703 56.654297 C 10.345703 56.845028 10.36579 57.033184 10.402344 57.21875 C 10.682416 55.381529 12.682854 53.801635 15.566406 52.958984 C 15.345509 52.70374 15.134247 52.441247 14.925781 52.175781 z M 49.074219 52.177734 C 48.866378 52.442452 48.655637 52.704433 48.435547 52.958984 C 51.318513 53.801464 53.320612 55.383349 53.601562 57.21875 C 53.638141 57.033262 53.658203 56.84492 53.658203 56.654297 C 53.658203 54.777796 51.82455 53.132542 49.074219 52.177734 z"/>
</svg>

<svg xmlns="http://www.w3.org/2000/svg" width="64" height="64" version="1"><path style="opacity:.2" d="M50.912 28.016c.513-1.736.796-3.567.796-5.467 0-10.796-8.82-19.548-19.706-19.548-10.88 0-19.704 8.75-19.704 19.548 0 1.9.285 3.731.796 5.467-2.481 1.978-12.112 10.546-8.15 21.656 0 0 3.352-.284 6.105-5.334a21.303 21.303 0 0 0 4.517 8.621c-3.111.909-5.221 2.672-5.221 4.695 0 2.953 4.492 5.346 10.03 5.346 3.759 0 7.032-1.104 8.748-2.733.945.124 1.898.209 2.876.209.979 0 1.934-.085 2.875-.209C36.594 61.895 39.865 63 43.625 63c5.54 0 10.034-2.395 10.034-5.346 0-2.021-2.112-3.786-5.223-4.695a21.331 21.331 0 0 0 4.519-8.621c2.751 5.048 6.098 5.334 6.098 5.334 3.968-11.113-5.662-19.681-8.142-21.656z"/><path style="fill:#4f4f4f" d="M50.912 27.016c.513-1.736.796-3.568.796-5.467C51.708 10.753 42.888 2 32.002 2c-10.88 0-19.704 8.75-19.704 19.548 0 1.9.285 3.73.796 5.467-2.481 1.978-12.112 10.546-8.15 21.656 0 0 3.352-.285 6.105-5.334a21.31 21.31 0 0 0 4.517 8.621c-3.11.909-5.221 2.672-5.221 4.695 0 2.953 4.492 5.346 10.03 5.346 3.76 0 7.032-1.105 8.748-2.733.945.123 1.898.209 2.876.209.98 0 1.934-.086 2.875-.209 1.72 1.628 4.991 2.733 8.75 2.733 5.54 0 10.035-2.395 10.035-5.346 0-2.021-2.112-3.786-5.223-4.695a21.337 21.337 0 0 0 4.519-8.621c2.75 5.048 6.098 5.334 6.098 5.334 3.968-11.113-5.662-19.681-8.142-21.656z"/><circle style="fill:#f4f4f7" cx="22" cy="16" r="4"/><circle style="fill:#f4f4f7" cx="42" cy="16" r="4"/><ellipse style="fill:#f4f4f7" cx="32" cy="38" rx="14" ry="16"/><circle style="fill:#303030" cx="24" cy="17" r="2"/><circle style="fill:#303030" cx="44" cy="17" r="2"/><path style="opacity:.2" d="M28 19h8c-.641 6.163-4 12-4 12s-4-6.927-4-12z"/><path style="fill:#cd5252" d="M28 18h8c-.641 6.163-4 12-4 12s-4-6.927-4-12z"/><path style="fill:#f4f4f7;opacity:.1" d="M32.002 2c-10.88 0-19.703 8.751-19.703 19.549 0 .138.012.274.015.412.315-10.525 9.007-18.959 19.688-18.959 10.687 0 19.375 8.436 19.69 18.959.002-.138.015-.274.015-.412C51.707 10.753 42.887 2 32.002 2zm-19.12 25.195c-2.297 1.868-9.128 8.138-8.87 16.606.287-8.18 7.059-14.173 9.082-15.785-.08-.27-.143-.546-.211-.82zm38.241 0c-.068.275-.131.55-.21.82 2.02 1.61 8.788 7.602 9.075 15.78.259-8.467-6.57-14.735-8.865-16.6zm-36.197 24.98c-2.75.955-4.58 2.601-4.58 4.48 0 .19.02.378.056.564.28-1.837 2.28-3.417 5.164-4.26-.22-.255-.432-.518-.64-.783zm34.148.003c-.208.264-.418.526-.638.781 2.883.842 4.885 2.424 5.166 4.26.036-.186.056-.374.056-.565 0-1.876-1.833-3.521-4.584-4.476z"/></svg>
